!!!COM: Ernest Chausson
!!!CNT: Francais
!!!TXO: Francais
!!!OTL: Le Colibri
!!!OPS: Op. 2
!!!ONM: No. 7
!!!LYR: Leconte de Lisle
!!!ENC: Jacob Pegg
!!!YOR: 20 Songs for Voice and Piano, International Music Company, New York City, January, 1952
!!!ODT: 1882/
!!NB: Vocal melody and text only encoded.
**kern	**silbe
*clef G2	*
*k[f#c#g#d#a#]	*
*M5/4	*
=5	=5
{4f#	{Le
4g#	vert
8d#	col-
8e	-ib-
4f#	-ri,
8r	.
8f#	le
=6	=6
4b	roi
8cc#	des
8dd#	col-
4a#	-li-
8a#}	-nes,}
8r	.
8r	.
{8g#	{Voy-
=7	=7
4g#	-ant
8a#	la
8b	ro-
4g#	-se/e
8a#	et
8b	le
8cc#	so-
8dd#	-leil
=8	=8
2.dd#}	clair,}
{8a#	{Lui-
8a#	-re
8b	dans
8cc#	son
=9	=9
2b	nid
4g#	tis-
4e	-se/
8f#	d'her-
8g#	-bes
=10	=10
2.cc#	fi-
[4f#	-nes,
8f#]}	|}
8r	.
=11	=11
{8cc#	{Comme
8b	un
8f#	frais
8d#	ray-
4.d#	-on
8e#	s'e/-
12d#	-chap-
12f#	-pe
12g#	dans
=12	=12
[2a#	l'air
4a#]}	|}
4r	.
4r	.
=13	=13
{8a#	{Il
8a#	se
[4g#	ha^te
8g#]	|
8a#	et
8f#	vole
8g#	aux
12a#	sour-
12g#	ces
12f#	voi-
=14	=14
2b	-si-
[4f#	-nes,
8f#]}	|}
8r	.
4r	.
=15	=15
{4f#	{Ou\
8e#	les
8f#	bam-
4d#	-bous
8e#	font
8f#	le
12d#	bruit
12e#	de
12f#	la
=16	=16
[2.g#	mer,
4g#_	|
8g#]}	|}
8r	.
=17	=17
{8an	{Ou\
8an	l'a-
8g#	-5o-
8an	-ka
4f#	rouge
8g#	aux
8an	o-
(12f#	-deurs
12g#)	|
12a#	di-
=18	=18
2b	-vi-
[4b	-nes
8b]}	|}
8r	.
4r	.
=19	=19
{8b#	{S'ouvre
8b#	et
8a#	porte
8g#	au
2b#	coeur
8b#	un
8b#	hu-
=20	=20
8cc#	-mide
8g#	e/-
[2cc#	-clair
8cc#]}	|}
8r	.
4r	.
=21	=21
{[2dd#	{Vers
2dd#]	|
4a#	la
=22	=22
4cc#	fleur
4g#	do-
4g#	-re/e,
4r	.
8g#	il
8a#	des-
=23	=23
[2b	-cend,
2b]	|
4gn	se
=24	=24
2b-	po-
4b-}	-se,}
4r	.
{4b-	{Et
=25	=25
2.an	boit
4ccn	tant
4an	d'a-
=26	=26
2.g#	-mour
4b	dans
4g#	la
=27	=27
[2gn	cou-
2gn]	|
4gn	-pe
=28	=28
2f#	ro-
[2f#	-se
8f#;]}	|}
{8f#	{Qu'il
=29	=29
[2.b	meurt,
2b_	|
=30	=30
4b]	|
8a#	ne
8b	sa-
4g#	-chant
8a#	s'il
8b	l'a
(12g#	pu-
12a#)	|
12b	-ta-
=31	=31
[2.cc#	-rir!
2cc#_	|
=32	=32
4cc#]}	|}
4r	.
4r	.
2r	.
=33	=33
4r	.
{8f#	{Sur
8g#	ta
8d#	le\v-
8e	-re,
4f#	pu-
8f#	-re,
8r	.
=34	=34
8b	O^
8b	ma
8cc#	bien~
8dd#	~ai-
2a#	-me/-
8g#}	-e,}
8r	.
=35	=35
{8g#	{Telle
8g#	aus-
8a#	-si
8b	mon
4g#	a^me
8a#	eut
8b	vou-
8cc#	-lu
8dd#	mou-
=36	=36
[2.dd#	-rir,
2dd#]}	|}
=37	=37
{8ee	{Du
8dd#	pre-
8cc#	-mier
8b	bai-
[4g#	-ser
8g#]	|
8a#	qui
12g#	l'a
12a#	par-
12b	-fu-
=38	=38
[2.cc#	-me/-
2cc#]	|
=39	=39
[2b	-e
4b]}	|}
2r	.
=40	=40
1r	.
*-	*-
